file/prudential-financial.svg

<svg clip-rule="evenodd" fill-rule="evenodd" stroke-linejoin="round" stroke-miterlimit="1.41421" viewBox="0 0 560 400" xmlns="http://www.w3.org/2000/svg"><path d="m395 174.3v2.7h-16.3v-2.7c1.5 0 2.3-.2 2.9-.7.4-.4.6-1.5.6-3.2v-34.4c0-1.8-.2-2.9-.6-3.5-.5-.7-1.5-1.1-3.1-1.1h-1.2v-2.5l13.8-1.1v42.5c0 2.2.6 3.4 1.8 3.7.5.2 1.2.3 2.1.3zm-19.3 0h.5v2.7h-12v-2.9-1.6c-.8 1.6-2.1 2.9-3.7 3.9-1.8 1.1-3.6 1.7-5.5 1.7-3.4 0-6-1-7.7-3.1-1.3-1.6-2-3.5-2-5.6 0-3.6 1.8-6.5 5.3-8.5 2.7-1.6 7.1-3 13.3-4.2v-5.3c0-3.8-2.1-5.7-6.2-5.7-1.5 0-3 .4-4.3 1.1-.7.4-1.2.8-1.6 1.2.4-.1.9-.2 1.4-.2 2.8 0 4.2 1.3 4.2 4 0 1.1-.5 2.1-1.4 2.9-.9.9-2.1 1.3-3.5 1.3-1.3 0-2.4-.4-3.3-1.2-1.1-1-1.7-2.3-1.7-3.9 0-2.4 1.2-4.4 3.6-5.8 2.4-1.5 5.3-2.2 8.9-2.2 8.7 0 13 3.9 13 11.5v15.9c-.2 2.7.8 4 2.7 4zm-11.9-15c-3.3.6-5.6 1.5-6.9 2.6-1.5 1.3-2.3 3.3-2.3 6.2 0 1.7.4 3.1 1.1 4s1.6 1.4 2.6 1.4c1.7 0 3.1-.9 4.2-2.9.8-1.4 1.3-3.5 1.3-6.3zm-225.4-16.6c0 4.6-1.8 8.1-5.5 10.5-3.3 2.1-7.6 3.2-13.1 3.2h-3.2v13.8c0 1.6.3 2.7.9 3.3s1.8.8 3.5.8h2.2v2.7h-21.5v-2.7h.8c1.7 0 2.8-.2 3.4-.7.7-.6 1.1-1.7 1.1-3.4v-34.2c0-2.2-.4-3.6-1.3-4.1-.5-.3-1.8-.5-4-.5v-2.6h18.1c5.4 0 9.7 1 12.9 3 3.8 2.5 5.7 6.1 5.7 10.9zm-9.9 0c0-7.4-2.9-11.1-8.6-11.1h-3v21.7h3c5.7 0 8.6-3.5 8.6-10.6zm31.6.1c-4.1 0-6.7 2.5-8 7.4l-.2-6.5h-11.4v2.7h.9c1.1 0 1.9.4 2.2 1.3.3.6.4 3.3.4 8.3v14.4c0 1.7-.3 2.8-.8 3.2s-1.4.7-2.7.7h-.7v2.7h18.1v-2.7h-1.1c-1.9 0-3-.3-3.4-.8-.3-.5-.5-1.5-.5-3v-6.6c0-2.5.3-5.2.9-8.2.7-3.7 1.7-6.4 2.9-7.9-.1.4-.1.6-.1.7-.1 1 .3 1.8 1 2.5.7.8 1.7 1.2 3 1.2s2.4-.5 3.3-1.5c.8-.9 1.1-2 1.1-3.1 0-1.3-.5-2.4-1.4-3.2-.8-1.2-2-1.6-3.5-1.6zm40.7 31.5h.9v2.7h-12.2l-.2-4.3c-.6 1.2-1.5 2.3-2.7 3.2-1.8 1.4-3.9 2.1-6.1 2.1-3.8 0-6.5-1.1-8.1-3.2-1.3-1.7-1.9-4.3-1.9-7.8v-14c0-3.1-.1-5-.4-5.5-.4-.7-1.3-1.1-2.7-1.1h-.4v-2.8h12.5v24.4c0 3.2 1.3 4.9 4 4.9 2.2 0 3.7-1.5 4.5-4.7.3-1.3.5-3 .5-5.2v-10.1c0-3.5-.2-5.4-.5-5.7-.5-.6-1.5-.8-3-.8h-.9v-2.8h13.7v24.9c0 2.7.2 4.3.5 4.7.4.8 1.3 1.1 2.5 1.1zm-11.1-2.7c-.1 0-.2.1-.2.2zm46.3 2.7h.6v2.6h-11.9l-.2-4.2c-.5 1-1.3 2-2.4 2.9-1.8 1.5-4 2.3-6.5 2.3-4.8 0-8.4-1.9-10.7-5.8-1.8-3-2.7-6.9-2.7-11.7 0-4.4 1.2-8.3 3.6-11.7 2.7-3.8 6.4-5.7 10.8-5.7 3.5 0 6 1 7.3 3.1-.2-.9-.3-4-.3-9.4-.1-2-.2-3.2-.5-3.8-.5-1-1.6-1.4-3.4-1.4h-.9v-2.5l13.9-1.1v42.6c0 1.4.2 2.3.5 2.8.5.6 1.4 1 2.8 1zm-12.3-17.5c0-7-1.8-10.5-5.5-10.5-2.5 0-4.3 1.8-5.1 5.4-.4 1.9-.6 4.8-.6 8.7 0 8.8 1.9 13.3 5.6 13.3 2.7 0 4.4-1.9 5.3-5.5.3-1.2.4-2.7.4-4.6v-6.8zm43.2 2.8h-20.2c0 3.1.2 5.5.5 7.3.9 5.2 3.3 7.8 6.9 7.8 2.6 0 4.7-1.1 6.6-3.3 1.6-1.9 2.5-3.9 2.5-6.1h3.4c-.1 2.9-1.3 5.7-3.7 8.3-2.7 2.9-6.1 4.4-10.1 4.4-5.1 0-9.1-1.7-11.9-5.1-2.6-3.1-3.9-7.3-3.9-12.5 0-5.1 1.5-9.4 4.4-12.7 3-3.2 6.7-4.8 11.1-4.8 4.9 0 8.5 1.6 11 4.9 2.3 2.8 3.4 6.8 3.4 11.8zm-9.2-2.8c0-7.6-1.8-11.4-5.3-11.4-3.3 0-5.1 2.8-5.6 8.4-.1.8-.1 1.8-.1 3zm41.6 15v-3-15.1c0-7.2-3.3-10.9-10-10.9-2 0-3.9.5-5.5 1.5-1.7 1-2.9 2.2-3.6 3.8v-4.3h-11.9v2.7h.8c1.2 0 2 .3 2.4.9s.6 2.1.6 4.7v16.6c0 1.8 0 2.9-.1 3.3-.1 1.6-1 2.4-2.8 2.4h-.9v2.7h16.7v-2.7h-.6c-1.4 0-2.4-.3-3-.9-.3-.3-.4-1.9-.4-4.7v-12.5c0-2.9.5-5.2 1.4-6.7s2.2-2.3 3.7-2.3c1.6 0 2.7.5 3.3 1.6.4.7.6 2 .6 3.6v24.4h13v-2.7h-.7c-1.9.1-2.9-.8-3-2.4zm22.4-1.9c-.4 2.6-1.4 3.9-2.9 3.9-1.7 0-2.5-1.4-2.5-4.1v-23.2h6.3v-2.7h-6.3v-15h-2.8c-.1 3.2-1.1 6.4-3 9.5-2.3 3.7-5 5.5-8.3 5.5h-.9v2.7h5.9v22c0 6.3 2.8 9.4 8.3 9.4 4.1 0 6.8-1.4 8.2-4.3.8-1.6 1.2-4.8 1.2-9.3h-3.1c.1 2.8 0 4.6-.1 5.6zm-249-6.6 3.5-3 3.8-9-5.5-2.3-5.2 14.5-3.6 3-4.5 8h4.5zm-19.7 11.2h5.7l6-11.2-1.1-2zm-32.2-18s-5 12.2-7.6 18.1c-3.9-5.5-8.2-12.9-8.2-25.8 0-19.3 16.6-39.8 41.6-39.8 24 0 36.8 19.1 38.9 29l-21.1-5.7-18.3-10.6-6.7-1.2v4.9l5.1 4.8-7.2-.6s.2.4 6.2 6.7l27.2 4.5 4.8 3.1-12.4.6-5.1 18.8-16.8 11.2h-11l3.7-7.3-.6-.2-9.9 7.5h-2.4l10.1-14.2c.5-4.1.2-2.3.8-9.6l-1.6-2.1-4.1 15.8-8.5 10.2h-2.2l5-7.1 7-21.6-1.8.8-3.1 8.6zm-7.7 12.6c3.5-9.3 10.4-27.8 10.4-27.8s3.2-1.7 3.2-1.4l4.7-11.8 3-1.6 3.7-7.9 8.1 1.3 16.5 9.2 18.5 5.1c-4.8-12.2-18.3-22.6-34.6-22.6-23.4 0-38.7 19.2-38.7 37.1 0 10.4 2.5 15.5 5.2 20.4zm55.1-11.1 5-9.4-7-2.9-.7 6.2.7 1.1-.7 5.5zm10.7 2.8-8.7 13.7h9.2c4.9-6.8 7.2-13.9 7.6-20.8l-5.5-1.9zm-32.6 30.2c11.6 0 24.1-5.1 31.4-14.6h-63c9.1 11 21.5 14.6 31.6 14.6zm288.8-51c1.5 0 2.8-.5 3.9-1.6s1.6-2.4 1.6-3.9-.5-2.8-1.6-3.8-2.4-1.6-3.9-1.6-2.8.5-3.8 1.6c-1.1 1.1-1.6 2.3-1.6 3.8s.5 2.8 1.6 3.9c1 1.1 2.2 1.6 3.8 1.6zm5.3 33.4c-.3-.5-.5-2.1-.5-4.8v-24.8h-12.7v2.7h.9c.9 0 1.6.2 2.1.6s.7 1.8.7 4.2v17.4c0 2.3-.1 3.8-.3 4.4-.3.8-1.2 1.2-2.5 1.2h-.9v2.7h16.5v-2.7h-.9c-1.2 0-2-.3-2.4-.9z" fill="#007ac1" fill-rule="nonzero" transform="matrix(1.09756 0 0 1.09756 60.4878 35.3659)"/></svg>

<?xml version="1.0" encoding="UTF-8" standalone="no"?>
<!DOCTYPE svg PUBLIC "-//W3C//DTD SVG 1.1//EN" "http://www.w3.org/Graphics/SVG/1.1/DTD/svg11.dtd">
<svg width="100%" height="100%" viewBox="0 0 560 400" version="1.1" xmlns="http://www.w3.org/2000/svg" xmlns:xlink="http://www.w3.org/1999/xlink" xml:space="preserve" xmlns:serif="http://www.serif.com/" style="fill-rule:evenodd;clip-rule:evenodd;stroke-linejoin:round;stroke-miterlimit:1.41421;">
    <g id="logosvg.com_1_" transform="matrix(1.09756,0,0,1.09756,60.4878,35.3659)">
        <path d="M395,174.3L395,177L378.7,177L378.7,174.3C380.2,174.3 381,174.1 381.6,173.6C382,173.2 382.2,172.1 382.2,170.4L382.2,136C382.2,134.2 382,133.1 381.6,132.5C381.1,131.8 380.1,131.4 378.5,131.4L377.3,131.4L377.3,128.9L391.1,127.8L391.1,170.3C391.1,172.5 391.7,173.7 392.9,174C393.4,174.2 394.1,174.3 395,174.3ZM375.7,174.3L376.2,174.3L376.2,177L364.2,177L364.2,174.1L364.2,172.5C363.4,174.1 362.1,175.4 360.5,176.4C358.7,177.5 356.9,178.1 355,178.1C351.6,178.1 349,177.1 347.3,175C346,173.4 345.3,171.5 345.3,169.4C345.3,165.8 347.1,162.9 350.6,160.9C353.3,159.3 357.7,157.9 363.9,156.7L363.9,151.4C363.9,147.6 361.8,145.7 357.7,145.7C356.2,145.7 354.7,146.1 353.4,146.8C352.7,147.2 352.2,147.6 351.8,148C352.2,147.9 352.7,147.8 353.2,147.8C356,147.8 357.4,149.1 357.4,151.8C357.4,152.9 356.9,153.9 356,154.7C355.1,155.6 353.9,156 352.5,156C351.2,156 350.1,155.6 349.2,154.8C348.1,153.8 347.5,152.5 347.5,150.9C347.5,148.5 348.7,146.5 351.1,145.1C353.5,143.6 356.4,142.9 360,142.9C368.7,142.9 373,146.8 373,154.4L373,170.3C372.8,173 373.8,174.3 375.7,174.3ZM363.8,159.3C360.5,159.9 358.2,160.8 356.9,161.9C355.4,163.2 354.6,165.2 354.6,168.1C354.6,169.8 355,171.2 355.7,172.1C356.4,173 357.3,173.5 358.3,173.5C360,173.5 361.4,172.6 362.5,170.6C363.3,169.2 363.8,167.1 363.8,164.3L363.8,159.3ZM138.4,142.7C138.4,147.3 136.6,150.8 132.9,153.2C129.6,155.3 125.3,156.4 119.8,156.4L116.6,156.4L116.6,170.2C116.6,171.8 116.9,172.9 117.5,173.5C118.1,174.1 119.3,174.3 121,174.3L123.2,174.3L123.2,177L101.7,177L101.7,174.3L102.5,174.3C104.2,174.3 105.3,174.1 105.9,173.6C106.6,173 107,171.9 107,170.2L107,136C107,133.8 106.6,132.4 105.7,131.9C105.2,131.6 103.9,131.4 101.7,131.4L101.7,128.8L119.8,128.8C125.2,128.8 129.5,129.8 132.7,131.8C136.5,134.3 138.4,137.9 138.4,142.7ZM128.5,142.7C128.5,135.3 125.6,131.6 119.9,131.6L116.9,131.6L116.9,153.3L119.9,153.3C125.6,153.3 128.5,149.8 128.5,142.7ZM160.1,142.8C156,142.8 153.4,145.3 152.1,150.2L151.9,143.7L140.5,143.7L140.5,146.4L141.4,146.4C142.5,146.4 143.3,146.8 143.6,147.7C143.9,148.3 144,151 144,156L144,170.4C144,172.1 143.7,173.2 143.2,173.6C142.7,174 141.8,174.3 140.5,174.3L139.8,174.3L139.8,177L157.9,177L157.9,174.3L156.8,174.3C154.9,174.3 153.8,174 153.4,173.5C153.1,173 152.9,172 152.9,170.5L152.9,163.9C152.9,161.4 153.2,158.7 153.8,155.7C154.5,152 155.5,149.3 156.7,147.8C156.6,148.2 156.6,148.4 156.6,148.5C156.5,149.5 156.9,150.3 157.6,151C158.3,151.8 159.3,152.2 160.6,152.2C161.9,152.2 163,151.7 163.9,150.7C164.7,149.8 165,148.7 165,147.6C165,146.3 164.5,145.2 163.6,144.4C162.8,143.2 161.6,142.8 160.1,142.8ZM200.8,174.3L201.7,174.3L201.7,177L189.5,177L189.3,172.7C188.7,173.9 187.8,175 186.6,175.9C184.8,177.3 182.7,178 180.5,178C176.7,178 174,176.9 172.4,174.8C171.1,173.1 170.5,170.5 170.5,167L170.5,153C170.5,149.9 170.4,148 170.1,147.5C169.7,146.8 168.8,146.4 167.4,146.4L167,146.4L167,143.6L179.5,143.6L179.5,168C179.5,171.2 180.8,172.9 183.5,172.9C185.7,172.9 187.2,171.4 188,168.2C188.3,166.9 188.5,165.2 188.5,163L188.5,152.9C188.5,149.4 188.3,147.5 188,147.2C187.5,146.6 186.5,146.4 185,146.4L184.1,146.4L184.1,143.6L197.8,143.6L197.8,168.5C197.8,171.2 198,172.8 198.3,173.2C198.7,174 199.6,174.3 200.8,174.3ZM189.3,171.9L189.3,171.9ZM189.7,171.6C189.6,171.6 189.5,171.7 189.5,171.8L189.7,171.6ZM236,174.3L236.6,174.3L236.6,176.9L224.7,176.9L224.5,172.7C224,173.7 223.2,174.7 222.1,175.6C220.3,177.1 218.1,177.9 215.6,177.9C210.8,177.9 207.2,176 204.9,172.1C203.1,169.1 202.2,165.2 202.2,160.4C202.2,156 203.4,152.1 205.8,148.7C208.5,144.9 212.2,143 216.6,143C220.1,143 222.6,144 223.9,146.1C223.7,145.2 223.6,142.1 223.6,136.7C223.5,134.7 223.4,133.5 223.1,132.9C222.6,131.9 221.5,131.5 219.7,131.5L218.8,131.5L218.8,129L232.7,127.9L232.7,170.5C232.7,171.9 232.9,172.8 233.2,173.3C233.7,173.9 234.6,174.3 236,174.3ZM223.7,156.8C223.7,149.8 221.9,146.3 218.2,146.3C215.7,146.3 213.9,148.1 213.1,151.7C212.7,153.6 212.5,156.5 212.5,160.4C212.5,169.2 214.4,173.7 218.1,173.7C220.8,173.7 222.5,171.8 223.4,168.2C223.7,167 223.8,165.5 223.8,163.6L223.8,156.8L223.7,156.8ZM266.9,159.6L246.7,159.6C246.7,162.7 246.9,165.1 247.2,166.9C248.1,172.1 250.5,174.7 254.1,174.7C256.7,174.7 258.8,173.6 260.7,171.4C262.3,169.5 263.2,167.5 263.2,165.3L266.6,165.3C266.5,168.2 265.3,171 262.9,173.6C260.2,176.5 256.8,178 252.8,178C247.7,178 243.7,176.3 240.9,172.9C238.3,169.8 237,165.6 237,160.4C237,155.3 238.5,151 241.4,147.7C244.4,144.5 248.1,142.9 252.5,142.9C257.4,142.9 261,144.5 263.5,147.8C265.8,150.6 266.9,154.6 266.9,159.6ZM257.7,156.8C257.7,149.2 255.9,145.4 252.4,145.4C249.1,145.4 247.3,148.2 246.8,153.8C246.7,154.6 246.7,155.6 246.7,156.8L257.7,156.8ZM299.3,171.8L299.3,168.8L299.3,153.7C299.3,146.5 296,142.8 289.3,142.8C287.3,142.8 285.4,143.3 283.8,144.3C282.1,145.3 280.9,146.5 280.2,148.1L280.2,143.8L268.3,143.8L268.3,146.5L269.1,146.5C270.3,146.5 271.1,146.8 271.5,147.4C271.9,148 272.1,149.5 272.1,152.1L272.1,168.7C272.1,170.5 272.1,171.6 272,172C271.9,173.6 271,174.4 269.2,174.4L268.3,174.4L268.3,177.1L285,177.1L285,174.4L284.4,174.4C283,174.4 282,174.1 281.4,173.5C281.1,173.2 281,171.6 281,168.8L281,156.3C281,153.4 281.5,151.1 282.4,149.6C283.3,148.1 284.6,147.3 286.1,147.3C287.7,147.3 288.8,147.8 289.4,148.9C289.8,149.6 290,150.9 290,152.5L290,176.9L303,176.9L303,174.2L302.3,174.2C300.4,174.3 299.4,173.4 299.3,171.8ZM321.7,169.9C321.3,172.5 320.3,173.8 318.8,173.8C317.1,173.8 316.3,172.4 316.3,169.7L316.3,146.5L322.6,146.5L322.6,143.8L316.3,143.8L316.3,128.8L313.5,128.8C313.4,132 312.4,135.2 310.5,138.3C308.2,142 305.5,143.8 302.2,143.8L301.3,143.8L301.3,146.5L307.2,146.5L307.2,168.5C307.2,174.8 310,177.9 315.5,177.9C319.6,177.9 322.3,176.5 323.7,173.6C324.5,172 324.9,168.8 324.9,164.3L321.8,164.3C321.9,167.1 321.8,168.9 321.7,169.9ZM72.7,163.3L76.2,160.3L80,151.3L74.5,149L69.3,163.5L65.7,166.5L61.2,174.5L65.7,174.5L72.7,163.3ZM53,174.5L58.7,174.5L64.7,163.3L63.6,161.3L53,174.5ZM20.8,156.5C20.8,156.5 15.8,168.7 13.2,174.6C9.3,169.1 5,161.7 5,148.8C5,129.5 21.6,109 46.6,109C70.6,109 83.4,128.1 85.5,138L64.4,132.3L46.1,121.7L39.4,120.5L39.4,125.4L44.5,130.2L37.3,129.6C37.3,129.6 37.5,130 43.5,136.3L70.7,140.8L75.5,143.9L63.1,144.5L58,163.3L41.2,174.5L30.2,174.5L33.9,167.2L33.3,167L23.4,174.5L21,174.5L31.1,160.3C31.6,156.2 31.3,158 31.9,150.7L30.3,148.6L26.2,164.4L17.7,174.6L15.5,174.6L20.5,167.5L27.5,145.9L25.7,146.7L22.6,155.3L20.8,156.5ZM13.1,169.1C16.6,159.8 23.5,141.3 23.5,141.3C23.5,141.3 26.7,139.6 26.7,139.9L31.4,128.1L34.4,126.5L38.1,118.6L46.2,119.9L62.7,129.1L81.2,134.2C76.4,122 62.9,111.6 46.6,111.6C23.2,111.6 7.9,130.8 7.9,148.7C7.9,159.1 10.4,164.2 13.1,169.1ZM68.2,158L73.2,148.6L66.2,145.7L65.5,151.9L66.2,153L65.5,158.5L68.2,158ZM78.9,160.8L70.2,174.5L79.4,174.5C84.3,167.7 86.6,160.6 87,153.7L81.5,151.8L78.9,160.8ZM46.3,191C57.9,191 70.4,185.9 77.7,176.4L14.7,176.4C23.8,187.4 36.2,191 46.3,191ZM335.1,140C336.6,140 337.9,139.5 339,138.4C340.1,137.3 340.6,136 340.6,134.5C340.6,133 340.1,131.7 339,130.7C337.9,129.7 336.6,129.1 335.1,129.1C333.6,129.1 332.3,129.6 331.3,130.7C330.2,131.8 329.7,133 329.7,134.5C329.7,136 330.2,137.3 331.3,138.4C332.3,139.5 333.5,140 335.1,140ZM340.4,173.4C340.1,172.9 339.9,171.3 339.9,168.6L339.9,143.8L327.2,143.8L327.2,146.5L328.1,146.5C329,146.5 329.7,146.7 330.2,147.1C330.7,147.5 330.9,148.9 330.9,151.3L330.9,168.7C330.9,171 330.8,172.5 330.6,173.1C330.3,173.9 329.4,174.3 328.1,174.3L327.2,174.3L327.2,177L343.7,177L343.7,174.3L342.8,174.3C341.6,174.3 340.8,174 340.4,173.4Z" style="fill:rgb(0,122,193);fill-rule:nonzero;"/>
    </g>
</svg>
